X:1
T:[ID 2-104]
T:[ID 2-104]
T:Bezeichnung standardisiert: Menuet [mit Trio] Men\"uet Con Trio
T:Urheber unbekannt Datum in der hier transkribierten schriftlichen Quelle: 1767
C:Urheber unbekannt
C:Datum in der hier transkribierten schriftlichen Quelle: 1767
L:1/8
M:3/4
K:Bb
V:1 treble 
V:1
 B2 F2 E2 |{E} D4 C2 | B,DFBdf |{f} e4 d2 | c2 fcac | BGB=e gB | (3ABc B2 G2 | F6 :: f2 d2 df | %9
{f} e2{d} c4 | d2 B2 Bd | cA{G} F3 E | DFBF dF | A,FcF e2 | (3dfb d2 c2 | B6 :| %16
[M:3/4]"^Trio" !fermata!F2 B2 B2 | Bd{d} c4 | F2 c2 c2 | ce{e} d4 | Bd f2 f2 | Bd g4 |{f} e4 d2 | %23
{d} c6 :: f4 df | (3ede g4 | e4 ce | (3dcd f4 | DF B2 B2 | EG B2 B2 | EG B4 | (3Ace d2 c2 | B6 :| %33

